X:233
T:Clog
M:6/8
L:1/8
K:G
ABA A2 G | F2 G A3 | cBc e2 d | B6 | 
ABA A2 G | F2 G A3 | cBc e2 d | G3-G2 d | 
ABA A2 G | F2 G A3 | cBc e2 d | B6 | 
ABA A2 G | F2 G A3 | cBc e2 d | G3-G2 || 
d | d2 g gfg | f2 e A3 | cBc e2 d | B3-B2 d | 
d2 g gfg | f2 e A3 | cBc e2 d | G3-G2 d | 
d2 g gfg | f2 e A3 | cBc e2 d | B6 | 
ABA A2 G | F2 G A3 | cBc e2 d | G6 || 

